X: 39856
T: This Is My Love, Do You Like Her?
R: jig
M: 6/8
K: Adorian
A2A AGE c2B c2d|efe ede g3 g2e|
def g2e dBA G2A|1 Bde dBG A2B c2B:|2 Bde dBG A3 ABd||
|:eaa age dgg gfg|eaa agf g2b a2g|
eaf g2e dBA G2A|1 Bde dBG A3 ABd:|2 bde dBG A2B c2B||

